X:1
T:Auld Lang Syne
C:Traditional Scottish
M:4/4
L:1/4
Q:100
K:G
%% Classic 4/4 time signature song - strong beat emphasis
D | G3/2 G/2 G B | A3/2 G/2 A B | G3/2 G/2 B d | e3 d |
B3/2 d/2 d B | A3/2 G/2 A B | G E D D | G3 z |]
